src/main/resources/icons/AllIcons/nodes/warningMark_dark.svg

<svg xmlns="http://www.w3.org/2000/svg" width="16" height="16" viewBox="0 0 16 16"><rect id="frame" width="16" height="16" fill="none"/><g fill="none" fill-rule="evenodd"><path fill="#F4AF3D" d="M11.5 8.5L16 16H7z"/><path fill="#3C3F41" d="M12 14v1h-1v-1h1zm0-3.5V13h-1v-2.5h1z"/></g></svg>

<!-- Copyright 2000-2021 JetBrains s.r.o. Use of this source code is governed by the Apache 2.0 license that can be found in the LICENSE file. -->
<svg width="16" height="16" viewBox="0 0 16 16" fill="none" xmlns="http://www.w3.org/2000/svg">
<path fill-rule="evenodd" clip-rule="evenodd" d="M11.5 8.5L16 16H7L11.5 8.5Z" fill="#F4AF3D"/>
<path fill-rule="evenodd" clip-rule="evenodd" d="M12 14V15H11V14H12ZM12 10.5V13H11V10.5H12Z" fill="black" fill-opacity="0.8"/>
</svg>
